X:1
T:Title
%%score { ( 1 3 ) | ( 2 4 ) }
L:1/8
M:4/4
K:D
V:1 treble nm="Grand Piano"
V:3 treble 
V:2 bass 
V:4 bass 
V:1
 z4 z2[Q:1/4=100] A2 | [DFd]3 A F2 A2 | d2 e2 [Fd]2 B2 | A3 G F2 B2 | A6 [EAc]2 | %5
 [DAd]2 [DGB]2 [C^Gc]2 [CA]2 | [DFB]2 [B,EG]2 [A,EA]2 [A,DF]2 | z4 .d2 z2 | [A,CA]6 [CEA]2 | %9
 [DFd]3 A F2 A2 | d2 e2 [Fd]2 A2 | B2 c2 d2 e2 | c6 z2 | d3 c B2 c2 |[M:9/8] d2 ^d- d e2- e B2 | %15
[M:4/4] A2 d2 d2 c2 |[M:3/4] [Fd]6 |] %17
V:2
 z4 z2 A,2 | D,3 A, F,2 A,2 | [B,DF]2 [A,CG]2 [D,D]2 [G,DG]2 | %3
 [A,DF]3[K:bass] [^A,CE] [B,D]2 [^G,DE]2 | [A,CE]6 G,2 | F,2 G,2 =F,2 ^F,2 | B,,2 E,2 C,2 D,2 | %7
 D,2 C,2 [D,B,]2 [E,^G,D]2 | A,,6 A,2 | D,3 A, F,2 A,2 | [B,DF]2 [A,CG]2[K:bass] [D,D]2 [F,=CD]2 | %11
 [G,B,D]2 [F,^A,F]2 [B,F]2 [G,B,G]2 | E4 z4[K:bass] | [F,A,D]3 [F,^A,E] [G,B,D]2 [F,A,F]2 | %14
[M:9/8][K:treble] [B,F]2 [A,B,F]- [A,B,F] [G,B,G]2- [G,B,G] [^G,D=F]2 | %15
[M:4/4] [A,DF]2 [B,DF]2 [G,B,E]2 [A,G]2 |[M:3/4][K:bass] [D,A,]6 |] %17
V:3
 x8 | x8 | x8 | x8 | x8 | x8 | x8 | [B,E^G]2 [CEA]2 F-[Fc] B2 | x8 | x8 | x8 | x8 | z2 B,2 A,2 c2 | %13
 x8 |[M:9/8] x9 |[M:4/4] x8 |[M:3/4] x6 |] %17
V:4
 x8 | x8 | x8 | x3[K:bass] x5 | x8 | x8 | x8 | x8 | x8 | x8 | x4[K:bass] x4 | x8 | %12
 A,2 z2 z2[K:bass] [G,A,E]2 | x8 |[M:9/8][K:treble] x9 |[M:4/4] x8 |[M:3/4][K:bass] x6 |] %17

